X:1
T:"Gammal polska"
T:Ur notbok upptecknad av Carl Viktor Rulin, Folketorp, Närke
B:SMUS - katalog M15a bild 12 nr 26
O:Närke
R:Polska
M:3/4
L:1/8
Z:Nils L
K:Am
a>g e2 c>d | Bc A2 a2 | ag b>a gf | f2 e2 z2 :: c2 c>B c2 | ce g>f d2 | 
B2 B>A B2 | Bd f>e c2 :| ag e2 c>d | Bc A2 |]

